X: 6230
T: Carmela's
R: jig
M: 6/8
K: Gmajor
d/c/B/c/d BGd|e/d/c/d/e cAd|B/c/dG F/G/AD|
e/d/c/B/A/G/ FDd|d/c/B/c/d G2e/d/|c/B/A/G/F/E/ Ddc|
B/A/Gg f/e/dc|B/A/e/A/f/A/ g G2:|
FAd/c/ B/c/dG|A/G/F/E/D d/c/B/A/B|
c/d/ea g/f/e/d/c/A/|B/A/c/A/f/A/ G g2:|

